X: 3
T:Halting March, The
T:Pikemen, The
M:4/4
L:1/8
R:March
K:AMin
E2[|:A2 B/2c/2d ee2 d|e>d ef ec A2|G>A Bc dd2 e|dB GB d2cB|!
A2 B/2c/2d ee2 d|e>d ef ec A2|ag2 e dc2 B|1A2 A>G A2 E2:|2A2 A>G A2 e/2^
f/2g|]!
aa2 g ed2 e|g>a ge dB G2|aa2 g ed2 e|g>a ge g2 a/2g/2e/2g/2|!
aa2 g ed2 e|g>a ge dB G2|A>B cd e>e dB|A>B cd e2 eg|!
aa2 g ed2 e|g>a ge dB G2|A>B cd e>e dB|A2 A>G A2 E2|]!
